icon-themes/breeze_svg/cmd/lc_insertexternaldatasource.svg

<svg viewBox="0 0 24 24" xmlns="http://www.w3.org/2000/svg"><path d="m12 4c-4.418278 0-8 .8954-8 2v4 8c0 1.1046 3.581722 2 8 2s8-.8954 8-2v-12c0-1.1046-3.581722-2-8-2zm0 1c3.865993 0 7 .4477 7 1s-3.134007 1-7 1c-3.8659932 0-7-.4477-7-1s3.1340068-1 7-1zm-7 1.9375c1.3529566.6249 3.9580758 1.0625 7 1.0625 3.041924 0 5.647043-.4376 7-1.0625v3.0625c0 .5523-3.134007 1-7 1-3.8659932 0-7-.4477-7-1v-.9375zm0 4c1.3529566.6249 3.9580758 1.0625 7 1.0625 3.041924 0 5.647043-.4376 7-1.0625v3.0625c0 .5523-3.134007 1-7 1-3.8659932 0-7-.4477-7-1zm0 4c1.3529566.6249 3.9580758 1.0625 7 1.0625 3.041924 0 5.647043-.4376 7-1.0625v3.0625c0 .5523-3.134007 1-7 1-3.8659932 0-7-.4477-7-1z" fill="#4d4d4d"/></svg>

<svg viewBox="0 0 24 24" xmlns="http://www.w3.org/2000/svg">
  <path
     style="fill:#4d4d4d"
     d="M 12 4 C 7.581722 4 4 4.8954 4 6 L 4 10 L 4 18 C 4 19.1046 7.581722 20 12 20 C 16.418278 20 20 19.1046 20 18 L 20 6 C 20 4.8954 16.418278 4 12 4 z M 12 5 C 15.865993 5 19 5.4477 19 6 C 19 6.5523 15.865993 7 12 7 C 8.1340068 7 5 6.5523 5 6 C 5 5.4477 8.1340068 5 12 5 z M 5 6.9375 C 6.3529566 7.5624 8.9580758 8 12 8 C 15.041924 8 17.647043 7.5624 19 6.9375 L 19 10 C 19 10.5523 15.865993 11 12 11 C 8.1340068 11 5 10.5523 5 10 L 5 9.0625 L 5 6.9375 z M 5 10.9375 C 6.3529566 11.5624 8.9580758 12 12 12 C 15.041924 12 17.647043 11.5624 19 10.9375 L 19 14 C 19 14.5523 15.865993 15 12 15 C 8.1340068 15 5 14.5523 5 14 L 5 10.9375 z M 5 14.9375 C 6.3529566 15.5624 8.9580758 16 12 16 C 15.041924 16 17.647043 15.5624 19 14.9375 L 19 18 C 19 18.5523 15.865993 19 12 19 C 8.1340068 19 5 18.5523 5 18 L 5 14.9375 z "
     />
</svg>
